BEGIN
CLS
RESET
SCALE 2
L 90
MF 1.5
R 90
REPEAT 18
REPEAT 60
	L 80
	COL 0.8 0.2 0.3
	REPEAT 10
		REPEAT 10
			F 0.06
			R 5
		ENDREP
		REPEAT 10
			L 5
			MB 0.06
		ENDREP
		R 8
	ENDREP
	R 80
	COL 0.2 0.8 0.3
	REPEAT 10
		REPEAT 10
			F 0.06
			R 5
		ENDREP
		REPEAT 10
			L 5
			MB 0.06
		ENDREP
		L 8
	ENDREP
	F 0.1
	R 6
ENDREP
MF 0.4
R 21
PAUSE 30
CLS
ENDREP
END
